X:1
T: Luss Road
C:
R:Strathspey
Q: 128
K:G
M:4/4
L:1/16
|:GG3 F3G A3F D3C|B,3D A,3D B,G,3 G,4|AA3 ^G3A c3A E3D|C3E B,3E CA,3 A,4|
GG3 F3G A3F D4|BB3 A3B c3A F4|dd3 ^c3d ((3e2d2=c2) ((3B2A2G2) |((3F2E2D2) ((3c2B2A2) G4 B3d|
gg3 b3a g3d B3d|G3B e3B ((3g2f2e2) ((3d2c2B2) |cc3 e3d c3e a3g|((3f2g2a2) ((3g2f2e2) d4 e3f|
gg3 b3a g3d B3d|G3B e3B g3d B3G|cc3 e3c BB3 d3B|((3A2B2c2) ((3d2e2f2) g6:|
